X:1
T:Exaudi Domine - Palestrina
T:James Gibb editions
T:#
%%score [ 1 2 3 4 ]
L:1/8
Q:1/4=200
M:none
K:C
V:1 treble nm="Soprano" snm="S"
V:2 treble nm="Alto" snm="A"
V:3 treble-8 nm="Tenor" snm="T"
V:4 bass nm="Bass" snm="B"
V:1
"^G. P. da Palestrina\n(1526-94)""^Daniel 9: 17,19" E16 |"^Exaudi Domine" A8 G8 | (c6 B2 A4 G4 | %3
w: Ex-|au- di|Do\- * * *|
 F4) F4 E4 (c4- | c2 B2 A2 G2 F2 G2 A4- | A4) ^G4 A8- | A8 z4 A4- | A4 A4 G4 E4 | %8
w: * mi- ne, Do\-||* mi- ne,|* pre\-|* ces ser- vi|
 (G2 A2 B2 G2 A2 B2 c4- | c4 B4 A6 G2 | F4 E8 D4) | E8 C8 | F4 E4 (D6 E2 | F4 E2 D2 E4) F4 | %14
w: tu\- * * * * * *|||i, ex-|au- di Do\- *|* * * * mi-|
 E8 z8 | z8 z4 A4- | A4 A4 G4 E4 | (G8 A8- | A4 G4 F8) | E16- | E8 z8 | z4 D4 A8- | A4 A4 G4 c4 | %23
w: ne,|pre\-|* ces ser- vi|tu\- *||i:||il- lu\-|* mi- na fa-|
 B4 G4 B8 | A8 z4 d4- | d4 c4 A4 B4 | c6 B2 A4 (G4 | F8) E8 | z16 | z16 | z8 z4 d4- | d4 c4 A4 B4 | %32
w: ci- em tu-|am su\-|* per san- ctu-|a- ri- um tu\-|* um,|||su\-|* per san- ctu-|
 c12 B4 | c4 (B6 A2 A4- | A4 ^G4) A8 | z8 A8 | A8 c8- | c4 c4 B8 | G8 A8 | G8 A8- | A4 G4 E8 | %41
w: a- ri-|um tu\- * *|* * um:|et|pro- pi\-|* ti- us|in- ten-|de po\-|* pu- lum|
 F8 E8- | E8 B8 | c8 B8 | c12 B4 | G8 A8 | ^G16- | G8 z8 | z8 B8 | B4 B4 c8 | A4 (d6 c2 B2 A2 | %51
w: i- stum,|* in-|ten- de|po- pu-|lum i-|stum,||su-|per quem in-|vo- ca\- * * *|
 G2 F2 E2 D2 C4) F4 | (E4 D2 C2 D8 | E12 A4- | A4 G4 A8- | A4 G4 F8 | E4 c8 B4 | c12 B4 | A8 G8- | %59
w: * * * * * tum|est * * *|* no\-|* men tu\-|* um, De-|us, no- men|tu- um,|De- us,|
 G8 z4 A4- | A4 ^G4 A8- | A4 =G4 F8 | E8 z4 E4 | E4 F6 E2 E4- | E4) D4 E8 | C4 (c8 B4- | %66
w: * no\-|* men tu\-|* um, De-|us, no-|men tu\- * *|* um, De-|us, De\- *|
 B2 A2 A8 ^G4) | A16 |[Q:1/4=197] z4[Q:1/4=193] (A6[Q:1/4=189] G2[Q:1/4=187] F2[Q:1/4=185] E2 | %69
w: |us,|De\- * * *|
[Q:1/4=182] D4[Q:1/4=178] E4[Q:1/4=173] F8) |[Q:1/4=170] E16 |] %71
w: |us.|
V:2
 z16 | z16 | A,16 | D8 C8 | (F6 E2 D4 C4 | B,4) B,4 A,4 D4- | D4 D4 C4 A,4 | (C4 D4 E6 D2 | %8
w: ||Ex-|au- di|Do\- * * *|* mi- ne, pre\-|* ces ser- vi|tu\- * * *|
 C2 B,A, B,4 C8 | D8) E8 | C8 A,6 B,2 | C4 G,4 A,8- | A,8 z4 D4- | D4 C4 C4 A,4 | (C6 B,A, B,4 C4 | %15
w: |* i,|ex- au- di|Do- mi- ne,|* pre\-|* ces ser- vi|tu\- * * * *|
 B,8) A,8- | A,8 z4 E4- | E4 E4 D4 (A,2 B,2 | C2 D2 E6 D2 D4- | D4 C2 B,2 C8) | %20
w: * i,|* pre\-|* ces ser- vi *|||
 B,4 (G,6 A,2 B,2 C2 | D8) z8 | A,8 E8- | E4 E4 D4 G4 | F4 D4 F8 | E4 E4 F4 G4 | E4 F6 F2 E4 | %27
w: tu- i: * * *||il- lu\-|* mi- na fa-|ci- em tu-|am su- per san-|ctu- a- ri- um|
 D8 A,4 (E4 | F4 G8 F2 E2) | D8 z8 | z16 | z4 A8 G4 | E4 F4 G6 F2 | E4 (D4 C4 B,2 A,2 | B,8) A,8 | %35
w: tu- um, tu\-||um,||su- per|san- ctu- a- ri-|um tu\- * * *|* um:|
 E16 | F8 G8- | G4 G4 G8 | D8 F8 | E8 C8 | D4 (E6 D2) (C4- | C4 B,4) C8 | G8 G8 | E8 G8 | %44
w: et|pro- pi\-|* ti- us|in- ten-|de po-|pu- lum * i\-|* * stum,|in- ten-|de po-|
 F4 (E2 D2 E2 F2 G4- | G2 F2) (E8 D4) | E16- | E16 | z16 | E8 E4 E4 | F4 D4 (G6 F2 | %51
w: pu- lum * * * *|* * i\- *|stum,|||su- per quem|in- vo- ca\- *|
 E2 D2 C2 B,2 A,4 D4- | D2 C2 C8) B,4 | C8 z4 F4- | F4 E4 F8- | F4 E4 D8 | C8 z4 (E4- | %57
w: |* * * tum|est no\-|* men tu\-|* um, De-|us, no\-|
 E2 D2 C2 B,2 A,4) B,4 | C4 A,4 (B,8 | C4 D4) E8 | z4 E8 D4 | E12 D4 | C8 B,8 | C12 B,4 | A,8 B,8 | %65
w: * * * * * men|tu- um, De\-|* * us,|no- men|tu- um,|De- us,|no- men|tu- um,|
 (A,6 B,2 C2 D2 E4- | E4 D4) E8- | E8 z4 F4- | F4 E4 F8- | F4 E4 D8 | ^C16 |] %71
w: De\- * * * *|* * us,|* no\-|* men tu\-|* um, De-|us.|
V:3
 z16 | z16 | z16 | z16 | z16 | z16 | z16 | z8 E8- | E8 A8 | G8 (c6 B2 | A4 G4 F4) F4 | %11
w: |||||||Ex\-|* au-|di Do\- *|* * * mi-|
 E4 (c6 B2 A2 G2 | F2 G2 A8) ^G4 | A16 | z4 e8 e4 | d4 B4 (c6 B2 | c4 d4 e6 d2 | c4 B4) A8 | %18
w: ne, Do\- * * *|* * * mi-|ne,|pre- ces|ser- vi tu\- *||* * i:|
 z8 D8 | A12 A4 | G4 c4 B4 G4 | B8 A4 d4 | c4 A4 (c6 B2 | G2 A2 B6 A2 B2 c2 | d16 | A8 z8 | z16 | %27
w: il-|lu- mi-|na fa- ci- em|tu- am, fa-|ci- em tu\- *|||am||
 z4 d8 c4 | A4 B4 c8- | c4 B4 c4 B4- | B2 A2 A8 ^G4) | A8 F4 G4 | (A6 G2 E2 F2 G4) | A4 D4 F8 | %34
w: su- per|san- ctu- a\-|* ri- um tu\-||um, san- ctu-|a\- * * * *|ri- um tu-|
 E8 z8 | c16 | c8 e8- | e4 e4 d8 | B8 c8 | c4 (c6 B2 A2 G2 | F4) G8 A4 | F8 G8 | c8 d4 (e4- | %43
w: um:|et|pro- pi\-|* ti- us|in- ten-|de po\- * * *|* pu- lum|i- stum,|in- ten- de|
 e4 d2 c2 d8) | z4 c4 A4 B4 | (c4 B4 A8) | B8 z4 B4 | B4 B4 c8 | A4 (d6 c2 B2 A2 | G4) G4 A8 | %50
w: |po- pu- lum|i\- * *|stum, su-|per quem in-|vo- ca\- * * *|* tum est,|
 z16 | z16 | z8 z4 G4 | G4 G4 A4 F4 | (c6 B2 A2 G2 F2 E2 | D4 E4 F4) D4 | (A8 E8) | z8 z4 e4- | %58
w: ||su-|per quem in- vo-|ca\- * * * * *|* * * tum|est *|no\-|
 e4 d4 e8- | e4 d4 c8 | B8 (A6 B2 | c8) A8 | z4 A8 G4 | A12 G4 | F8 E4 (e4- | e2 d2 c2 B2 A4) B4 | %66
w: * men tu\-|* um, De-|us, De\- *|* us,|no- men|tu- um,|De- us, no\-|* * * * * men|
 c4 A4 B8 | A8 z4 d4- | d4 c4 d8 | A8 A8 | A16 |] %71
w: tu- um, De-|us, no\-|* men tu-|um, De-|us.|
V:4
 z16 | z16 | z16 | z16 | z16 | z16 | z16 | z16 | z16 | z8 A,,8- | A,,8 D,8 | C,8 (F,6 E,2 | %12
w: |||||||||Ex\-|* au-|di Do\- *|
 D,4 C,4 B,,4) B,,4 | A,,8 z4 A,4- | A,4 A,4 G,4 E,4 | (G,8 A,6 G,2 | F,8) E,8- | E,8 z8 | z16 | %19
w: * * * mi-|ne, pre\-|* ces ser- vi|tu\- * *|* i:|||
 z8 A,,8 | E,12 E,4 | D,4 G,4 F,4 D,4 | (F,8 C,6 D,2 | E,6 F,2 G,8) | D,16 | z16 | z16 | %27
w: il-|lu- mi-|na fa- ci- em|tu\- * *||am|||
 z8 z4 A,4- | A,4 G,4 E,4 F,4 | G,6 F,2 E,4 (D,4 | C,4 B,,2 A,,2 B,,8) | A,,8 z8 | z16 | z16 | %34
w: su\-|* per san- ctu-|a- ri- um tu\-||um:|||
 z16 | A,16 | F,8 C,8- | C,4 C,4 G,8 | G,8 F,8 | C,8 F,8- | F,4 E,4 C,8 | D,8 C,8- | C,8 G,8 | %43
w: |et|pro- pi\-|* ti- us|in- ten-|de po\-|* pu- lum|i- stum,|* in-|
 A,8 G,8 | A,12 G,4 | E,8 F,8 | E,16 | E,8 E,4 E,4 | F,4 D,4 (G,6 F,2 | E,4) E,4 A,,8 | z8 z4 E,4 | %51
w: ten- de|po- pu-|lum i-|stum,|su- per quem|in- vo- ca\- *|* tum est,|su-|
 E,4 E,4 F,4 D,4 | A,8 G,8 | C,8 z8 | z16 | z16 | z4 A,8 G,4 | A,12 G,4 | (F,8 E,6 D,2 | %59
w: per quem in- vo-|ca- tum|est|||no- men|tu- um,|De\- * *|
 C,4 B,,4 C,4) A,,4 | E,8 F,8 | C,8 D,8 | (A,,8 E,8) | A,,8 z8 | z4 A,8 G,4 | A,12 G,4 | F,8 E,8 | %67
w: * * * us,|no- men|tu- um,|De\- *|us,|no- men|tu- um,|De- us,|
 z4 A,8 D,4 | (A,6 G,2 F,2 E,2 D,4- | D,4) ^C,4 D,8 | A,,16 |] %71
w: no- men|tu\- * * * *|* um, De-|us.|

